X:1
T:La Belle Gaspésie
C:Marcel Messervier
L:1/8
M:C|
I:linebreak $
K:A
V:1 treble
V:1
"A"AB | c3 d cBAc | fee^d e2 EA | c3 d cBAc |"Bm"eddc d3 c |$
"E"dcde dcBA | BABc B3 e | e^def e=dcB |1"A"cBcd "E"c2 EA :|2"A"AcBG "A7"A4 ||$
|:"D"aA=gA "D#dim"fAeA |"A"Acef "F#m"ecBA |"E"E2 BE cEBE |"A"ABcd "A7"ecBA |$
"D"aA=gA "D#dim"fAeA |"A"Acef "F#m"ecBA |"E"E2 BE cEBE |1"A"AcBG A4 |]2"A"AcBG A2 |]
